X: 37388
T: Sleepless In Syros
R: reel
M: 4/4
K: Gmajor
|:GFGA BD D2|GFGA BD D2|c3B A3G|FDAD AcBA|
GFGA BD D2|GDAD BD D2|c3B A3G|FGAF G3D:|
|:c3B ADFA|GBdB gfed|e3d cBAG|FDAD AcBA|
GFGA BD D2|GDAD BD D2|c3B A3G|FGAF G3D:|

